public/images/two-clouds.svg

<svg width="586" height="321" viewBox="0 0 586 321" fill="none" xmlns="http://www.w3.org/2000/svg">
<path fill-rule="evenodd" clip-rule="evenodd" d="M433.452 34.1069C456.446 34.1069 476.483 46.767 486.973 65.4971C493.953 62.7348 501.56 61.2168 509.522 61.2168C539.191 61.2168 563.937 82.2932 569.604 110.29C579.341 119.74 585.391 132.966 585.391 147.606C585.391 176.322 562.112 199.601 533.396 199.601C524.133 199.601 515.436 197.179 507.903 192.933C497.011 202.857 482.528 208.907 466.632 208.907C447.059 208.907 429.629 199.734 418.405 185.453C407.783 194.288 394.128 199.601 379.231 199.601C345.375 199.601 317.93 172.155 317.93 138.299C317.93 105.894 343.074 79.3614 374.916 77.1471C382.688 52.2097 405.956 34.1069 433.452 34.1069Z" fill="#258ACB"/>
<path fill-rule="evenodd" clip-rule="evenodd" d="M337.623 114.177C340.611 102.21 340.69 89.3378 337.271 76.5789C326.527 36.4821 285.313 12.6869 245.216 23.4308C222.474 29.5246 204.976 45.4206 196.049 65.3553C180.55 55.8951 161.354 52.5546 142.429 57.6254C117.369 64.3404 99.2698 84.0684 93.4549 107.591C87.9307 107.683 82.3285 108.447 76.7499 109.942C40.0742 119.769 18.3092 157.467 28.1364 194.143C37.9636 230.818 75.6617 252.583 112.337 242.756C124.51 239.494 135.041 233.162 143.319 224.816C160.12 241.693 185.235 249.362 209.888 242.756C223.705 239.054 235.405 231.397 244.097 221.328C261.198 246.396 292.851 259.178 323.822 250.879C363.016 240.377 386.275 200.091 375.773 160.897C370.108 139.754 355.776 123.248 337.623 114.177Z" fill="#70BCFF"/>
</svg>

<svg xmlns="http://www.w3.org/2000/svg" width="586" height="321" fill="none" viewBox="0 0 586 321"><path fill="#258acb" fill-rule="evenodd" d="M433.452 34.107c22.994 0 43.031 12.66 53.521 31.39a61.1 61.1 0 0 1 22.549-4.28c29.669 0 54.415 21.076 60.082 49.073 9.737 9.45 15.787 22.676 15.787 37.316 0 28.716-23.279 51.995-51.995 51.995-9.263 0-17.96-2.422-25.493-6.668-10.892 9.924-25.375 15.974-41.271 15.974-19.573 0-37.003-9.173-48.227-23.454-10.622 8.835-24.277 14.148-39.174 14.148-33.856 0-61.301-27.446-61.301-61.302 0-32.405 25.144-58.938 56.986-61.152 7.772-24.937 31.04-43.04 58.536-43.04" clip-rule="evenodd"/><path fill="#70bcff" fill-rule="evenodd" d="M337.623 114.177c2.988-11.967 3.067-24.84-.352-37.598-10.744-40.097-51.958-63.892-92.055-53.148-22.742 6.094-40.24 21.99-49.167 41.924-15.499-9.46-34.695-12.8-53.62-7.73-25.06 6.715-43.16 26.443-48.974 49.966a69 69 0 0 0-16.705 2.351c-36.676 9.827-58.44 47.525-48.614 84.201 9.828 36.675 47.526 58.44 84.201 48.613 12.173-3.262 22.704-9.594 30.982-17.94 16.801 16.877 41.916 24.546 66.569 17.94 13.817-3.702 25.517-11.359 34.209-21.428 17.101 25.068 48.754 37.85 79.725 29.551 39.194-10.502 62.453-50.788 51.951-89.982-5.665-21.143-19.997-37.649-38.15-46.72" clip-rule="evenodd"/></svg>
